logos/rescript.svg

<?xml version="1.0" encoding="UTF-8"?>
<svg width="512px" height="121px" viewBox="0 0 512 121" version="1.1" xmlns="http://www.w3.org/2000/svg" xmlns:xlink="http://www.w3.org/1999/xlink" preserveAspectRatio="xMidYMid">
    <title>rescript</title>
    <g>
        <path d="M83.9625559,0.000233290317 C84.168944,0.000320955304 84.3739398,0.000437841954 84.5775569,0.00059369082 L85.7828199,0.00207425505 C99.4555243,0.0262697916 106.690859,0.328713998 111.880758,4.10926658 C113.705464,5.43276749 115.312645,7.03269316 116.644388,8.85139244 C120.641557,14.3451314 120.746745,22.128042 120.75424,37.4293194 L120.754445,83.9625559 C120.748132,98.8224982 120.590296,106.465212 116.644388,111.880758 C115.307369,113.701103 113.701103,115.307369 111.880758,116.644388 C106.459313,120.590296 98.8210826,120.748132 83.9624143,120.754445 L36.7695996,120.754445 C21.9097313,120.748132 14.2679221,120.590296 8.85139244,116.644388 C7.03269316,115.312645 5.43276749,113.705464 4.10926658,111.880758 C0.328713998,106.685207 0.0262697916,99.4537532 0.00207425505,85.7825034 L0.00059369082,84.5773604 C0.000437841954,84.3737623 0.000320955304,84.1687847 0.000233290317,83.9624143 L0.000223044934,36.8131033 C0.000307294794,36.6090623 0.000419627941,36.4063814 0.00056940547,36.2050476 L0.00199229199,35.0131077 C0.0255822528,21.2933349 0.324388423,14.0481726 4.10926658,8.85139244 C5.42803802,7.02881812 7.02881812,5.42803802 8.85139244,4.10926658 C14.0431755,0.328713998 21.2777946,0.0262697916 34.9495751,0.00207425505 L36.1547573,0.00059369082 C36.3583608,0.000437841954 36.5633431,0.000320955304 36.7697176,0.000233290317 Z M454.076697,31.8820883 C458.675493,31.7589113 463.18498,33.166505 466.897128,35.883865 C470.530266,38.6556349 473.218009,42.4824946 474.592459,46.8406231 C475.934316,51.162527 476.583374,55.6696439 476.515524,60.1945561 C476.608884,64.6085133 475.995261,69.0089704 474.697931,73.2290022 C473.365964,77.5924012 470.716128,81.4365942 467.112168,84.2338881 C463.326662,86.962857 458.74035,88.353882 454.076697,88.187537 C449.440037,88.3390545 444.976298,86.419966 441.896264,82.950821 C441.751881,82.7347578 441.589065,82.6436222 441.412938,82.684582 C441.236811,82.7255419 441.147723,82.8811893 441.147723,83.1627882 L441.147723,103.298647 C441.147723,104.438355 440.510797,104.68821 439.437649,105.006673 C439.437649,105.006673 431.45048,107.271752 430.462324,107.523655 C429.474168,107.775558 428.75225,106.953289 428.75225,105.816654 L428.75225,34.4441265 C428.686006,33.9736325 428.844861,33.4993741 429.181134,33.1637054 C429.517406,32.8280366 429.99195,32.6700344 430.462324,32.7371251 L439.437649,32.7371251 C439.907833,32.6709239 440.381831,32.8292179 440.717882,33.1646652 C441.053933,33.5001125 441.213079,33.9738247 441.147723,34.4441265 L441.147723,37.2232519 C441.147723,37.5089468 441.235787,37.6891701 441.412938,37.7567539 C441.590089,37.8243376 441.750857,37.723986 441.896264,37.4393151 C444.859825,33.7787042 449.369589,31.7211599 454.076697,31.8820883 Z M55.9234684,29.2913783 L43.3309359,29.2921013 C39.5824429,29.2990912 37.5566266,29.3736499 35.9883126,30.1689429 C34.4591354,30.9524292 33.2150203,32.1969025 32.4319742,33.7263053 C31.6357533,35.2974033 31.5611076,37.3192756 31.5541095,41.083772 L31.5541413,83.2850401 C31.5604386,86.3146063 31.6192139,87.9797755 32.1677833,89.3118847 C32.9919797,91.299378 34.5711852,92.8785835 36.5586785,93.7027799 C37.8907876,94.2513492 39.5559568,94.3101245 42.585523,94.3164219 L44.8564567,94.3164974 C47.9229809,94.3106025 49.5775881,94.2536192 50.9161275,93.7027799 C52.9036208,92.8785835 54.4828263,91.299378 55.3070227,89.3118847 C55.9214204,87.8199224 55.9214204,85.9101697 55.9214204,82.1336721 L55.9214204,82.1336721 L55.9234684,29.2913783 Z M233.103463,31.8861843 C246.425652,31.8861843 254.226113,39.1872764 256.504845,53.7894606 C256.908432,56.6939758 257.157954,59.6178224 257.252362,62.548723 C257.318714,63.0193124 257.16017,63.4937401 256.824222,63.829889 C256.488274,64.1660379 256.013942,64.3248664 255.543313,64.2587965 L222.41704,64.2587965 C222.240501,64.2328 222.062088,64.2920028 221.936112,64.4183822 C221.810136,64.5447616 221.751505,64.7233638 221.778066,64.8998181 C221.72994,66.4917453 221.945854,68.0806494 222.41704,69.6020081 C223.133265,72.0768222 224.729978,74.2041936 226.906238,75.5831692 C229.381084,77.0825481 232.240271,77.8257303 235.131999,77.721273 C237.528741,77.7096789 239.89002,77.1414435 242.029637,76.0613754 C243.941857,75.0729872 245.57738,73.6232945 246.788146,71.8435355 C247.058656,71.3242119 247.59222,70.9951088 248.177709,70.9864508 C248.525446,70.9844272 248.863884,71.0986815 249.139241,71.3110575 L254.267414,75.371202 C254.688531,75.7190991 254.957125,76.2177076 255.015955,76.7607647 C254.99625,77.1046464 254.884105,77.4368366 254.691348,77.722297 C252.622939,81.0010465 249.705927,83.6590514 246.249524,85.4145556 C242.439904,87.3247846 238.222436,88.2786352 233.961571,88.193681 C228.939434,88.3688675 223.988514,86.9669542 219.803802,84.1847363 C215.932506,81.4338508 213.033496,77.5259585 211.523769,73.023179 C210.04305,68.7654203 209.320092,64.2810728 209.387713,59.7736937 C209.260964,55.9622236 209.654737,52.1512767 210.558141,48.446249 C211.758343,43.6187007 214.589237,39.3539112 218.571934,36.3733352 C222.785263,33.3097616 227.896381,31.7315136 233.103463,31.8861843 Z M335.925981,31.8861843 C341.080448,31.7691318 346.148596,33.2226841 350.45751,36.0538484 C354.323274,38.4922036 357.228831,42.1902507 358.68327,46.5231843 C358.971703,47.5031242 359.186319,48.5032951 359.325316,49.5153009 L359.325316,49.9484512 C359.325316,50.7318082 358.86247,51.2274224 357.937801,51.4424615 L349.068971,52.8320242 L348.636845,52.8320242 C347.881243,52.8575978 347.231762,52.3006453 347.14181,51.5499811 L346.818228,50.1624664 C346.277169,47.9641297 344.945099,46.0422157 343.076546,44.7639591 C340.992313,43.2757832 338.479944,42.5072262 335.919837,42.5746554 C333.456249,42.4990703 331.035476,43.2308398 329.026296,44.6584875 C327.131982,46.0608349 325.790888,48.0844371 325.23751,50.3754576 C324.425656,53.476786 324.065934,56.6791042 324.169482,59.8832612 C324.091452,63.0812714 324.41448,66.2764558 325.131015,69.3941369 C325.741531,71.7331444 327.090824,73.8125711 328.978168,75.3230742 C330.972571,76.8304621 333.42558,77.6043732 335.923933,77.5144258 C338.418745,77.5773779 340.869237,76.8474288 342.922947,75.4295698 C344.820846,74.1252672 346.170112,72.1659141 346.711732,69.9276388 L346.820276,69.3951609 C346.930738,68.9736618 347.173335,68.5986405 347.512497,68.325085 C347.866067,67.9796598 348.360992,67.8197376 348.849836,67.8929586 L357.717642,69.2825213 C358.644017,69.4982431 359.107205,69.9976119 359.107205,70.7806276 C359.036434,71.6447198 358.891865,72.501173 358.675078,73.3406178 C357.363204,77.8454986 354.433904,81.7072301 350.449318,84.1847363 C346.103587,86.9175453 341.05001,88.3117214 335.917789,88.193681 C330.855915,88.3186463 325.884202,86.8394265 321.71394,83.9676491 C317.756795,81.1981191 314.826861,77.1974525 313.38066,72.5890046 C311.100212,64.2653933 311.100212,55.4816733 313.38066,47.1580619 C314.774619,42.5958739 317.698963,38.6538321 321.660692,35.9965046 C325.881826,33.1960564 330.861908,31.7611238 335.925981,31.8861843 Z M295.218041,34.1768636 C298.241097,35.3729426 300.882245,37.3681387 302.8591,39.9491295 C304.664044,42.3693227 305.621335,45.3167694 305.582929,48.3356574 C305.579958,48.6981637 305.400317,49.0364233 305.101651,49.2418939 C304.791425,49.4712802 304.420579,49.6015109 304.037594,49.6177589 L295.655287,49.6177005 C294.513532,49.6177005 293.945214,49.4006133 293.945214,48.973607 L293.945214,48.3325854 C293.910468,46.413603 292.878227,44.6514193 291.221384,43.6826192 C288.990449,42.3258246 286.401742,41.6744542 283.794341,41.8138264 C281.435188,41.7146546 279.092577,42.249654 277.010367,43.3631324 C275.387102,44.1910406 274.373332,45.8674318 274.394057,47.6895159 C274.36901,49.361486 275.332634,50.8908386 276.851647,51.589917 C279.487608,52.8463408 282.244812,53.8307132 285.08048,54.5277617 L287.53807,55.1718553 C290.81298,56.1065035 294.025233,57.2481669 297.155442,58.5899542 C299.6799,59.7000516 301.911086,61.3829072 303.672153,63.5051354 C305.519513,65.838382 306.467579,68.7574388 306.343759,71.7308959 C306.508344,76.4622951 304.253227,80.9520778 300.359525,83.6450904 C296.370037,86.5286633 291.06403,87.9707911 284.441506,87.9714738 C280.41461,88.0530783 276.407714,87.3842784 272.625616,85.9992574 C269.570839,84.9110455 266.860743,83.0293874 264.773614,80.5475022 C262.969456,78.3696679 261.986353,75.6279972 261.995512,72.7999478 L261.995512,72.2674699 C261.929236,71.7970835 262.087655,71.322871 262.423352,70.9867711 C262.75905,70.6506711 263.233072,70.4916838 263.703538,70.5573964 L272.246737,70.5573964 C273.386786,70.5573964 273.95681,70.8069101 273.95681,71.3059376 L273.95681,72.0544787 C273.95681,73.8369145 274.935751,75.3869033 276.893631,76.7044449 C279.114375,78.0956651 281.703218,78.784453 284.321699,78.6807573 C286.759271,78.7882043 289.174452,78.1748814 291.265416,76.9174361 C292.881828,76.0205084 293.899382,74.3317344 293.937022,72.483533 C293.989659,70.9321063 293.133701,69.492177 291.74567,68.7971471 C289.47847,67.6708558 287.096578,66.7919794 284.641186,66.1757172 L280.581041,64.8946981 C277.42836,64.0084692 274.353869,62.864568 271.388628,61.4745512 C268.94566,60.3056668 266.792367,58.6094724 265.083884,56.5081702 C263.308903,54.2024535 262.402566,51.3453183 262.523894,48.438057 C262.377694,43.7488294 264.557753,39.2902094 268.348384,36.5259106 C272.229329,33.5706579 277.375251,32.0926902 283.786149,32.0920075 C287.69818,32.0114743 291.586287,32.7205559 295.218041,34.1768636 Z M418.188683,33.0254923 C418.508837,33.2678642 418.719549,33.6275304 418.774432,34.0253121 C418.793889,34.16321 418.793889,34.3031567 418.774432,34.4410546 L418.774432,85.6224268 C418.84072,86.0925422 418.682413,86.5665018 418.346904,86.9024132 C418.011395,87.2383245 417.537626,87.3972001 417.067431,87.3314763 L408.091081,87.3314763 C407.620915,87.3966709 407.147379,87.2376641 406.811841,86.9019246 C406.476302,86.5661851 406.317579,86.0925542 406.383056,85.6224268 L406.383056,34.4410546 C406.268845,33.6126969 406.847137,32.8483618 407.675339,32.7330291 C407.813307,32.7145971 407.953113,32.7145971 408.091081,32.7330291 L417.067431,32.7330291 C417.465181,32.6779123 417.86853,32.7831204 418.188683,33.0254923 Z M185.346333,32.734919 C185.431154,32.7340358 185.51596,32.7381393 185.600284,32.747365 L204.220629,32.747365 C204.644638,32.7454596 205.051963,32.9124217 205.352649,33.2113782 C205.653335,33.5103347 205.822643,33.9166905 205.823183,34.3407029 L205.823183,43.5576917 C205.823183,44.4351721 205.112445,45.1468276 204.234965,45.1479576 L188.363026,45.1479576 C187.691273,45.1479576 187.138761,45.6584854 187.072321,46.3127087 L187.065623,46.4453606 L187.065623,85.6224268 C187.065362,86.077926 186.883388,86.5144987 186.560054,86.8353334 C186.23672,87.1561681 185.798749,87.3347494 185.343261,87.3315205 L176.366912,87.3315205 C175.425526,87.3309114 174.662523,86.5679085 174.661958,85.6265228 L174.661958,35.2571794 C174.661958,33.8642608 175.791142,32.734919 177.184061,32.734919 L185.346333,32.734919 Z M377.412159,32.7349259 C377.498342,32.7340614 377.584509,32.7381646 377.670206,32.747365 L396.292598,32.747365 C396.713997,32.7470933 397.11823,32.914303 397.4163,33.2121811 C397.71437,33.5100592 397.88184,33.9141839 397.88184,34.335583 L397.880816,34.337631 L397.880816,43.5617877 C397.88136,43.9831866 397.714411,44.3875271 397.416725,44.6857894 C397.119039,44.9840516 396.715022,45.1517822 396.293622,45.1520536 L380.414515,45.1520536 C379.742763,45.1520536 379.190251,45.6625813 379.123811,46.3168047 L379.117112,46.4494566 L379.117112,85.6224268 C379.116547,86.5664744 378.351086,87.3314775 377.407039,87.3314775 L368.433761,87.3314775 C367.981225,87.3314775 367.547037,87.1526313 367.226853,86.8328316 C366.946692,86.5530068 366.773929,86.1857687 366.735115,85.7951671 L366.72676,85.6265228 L366.72676,35.2571794 C366.72789,33.8635296 367.858284,32.7349259 369.251934,32.7349259 L377.412159,32.7349259 Z M499.27352,20.0053815 L499.273837,32.0920075 C499.252175,32.2404373 499.2904,32.3913904 499.380094,32.5116221 C499.469788,32.6318538 499.603593,32.7115032 499.752043,32.7330291 C499.806006,32.7412162 499.860895,32.7412162 499.914858,32.7330291 L510.278722,32.7330291 C511.10708,32.618818 511.871415,33.1971099 511.986748,34.0253121 C512.00518,34.1632801 512.00518,34.3030866 511.986748,34.4410546 L511.986748,41.0622132 C512.042175,41.4599688 511.937242,41.8634458 511.695055,42.1838007 C511.452869,42.5041555 511.093287,42.7151192 510.695489,42.7702387 C510.556484,42.7914952 510.415218,42.7935625 510.275651,42.7763827 L499.914858,42.7763827 C499.76612,42.7547541 499.614891,42.7932553 499.494603,42.8833755 C499.374315,42.9734958 499.294872,43.1078132 499.273837,43.2566368 C499.266675,43.3099867 499.266675,43.3640544 499.273837,43.4174042 L499.273837,68.6333078 C499.273837,71.4124331 499.86161,73.4075188 501.037158,74.6185649 C502.212705,75.8296109 504.082522,76.4347926 506.646608,76.4341099 L509.423686,76.4341099 C509.821293,76.3783565 510.224759,76.4828757 510.545287,76.7246638 C510.865815,76.966452 511.077134,77.3256929 511.132735,77.723321 C511.153218,77.8628608 511.153218,78.0046436 511.132735,78.1441834 L511.132735,85.298844 C511.185081,85.7259164 511.065595,86.1562885 510.800573,86.4952486 C510.53555,86.8342087 510.146709,87.0539798 509.719621,87.1061971 C509.621408,87.1176184 509.52238,87.1203596 509.423686,87.1143891 L504.295513,87.2229327 C498.666948,87.2229327 494.464127,86.2429684 491.68705,84.2830399 C488.909972,82.3231114 487.485594,78.6708587 487.413914,73.3262818 L487.413914,43.4174042 C487.435244,43.2685549 487.396496,43.1173338 487.306213,42.997084 C487.215929,42.8768342 487.081525,42.7974312 486.932636,42.7763827 C486.879359,42.7681984 486.825145,42.7681984 486.771868,42.7763827 L481.215666,42.7763827 C480.745392,42.8412103 480.271913,42.6819336 479.936436,42.3460541 C479.600958,42.0101746 479.442249,41.5365049 479.50764,41.0663092 L479.50764,34.4400306 C479.393429,33.6116729 479.971721,32.8473378 480.799923,32.7320051 C480.937891,32.7135731 481.077698,32.7135731 481.215666,32.7320051 L486.771868,32.7320051 C487.080845,32.7771737 487.368072,32.5637 487.413914,32.2548229 C487.421084,32.2004451 487.421084,32.1453614 487.413914,32.0909835 L487.413914,22.6405237 C487.413914,21.5008161 487.899288,21.3144488 489.122963,20.9324982 L497.563763,18.4144919 C499.145661,17.9745266 499.26703,18.9168125 499.27352,20.0053815 Z M452.158753,42.6647671 C448.6545,42.6287958 445.429762,44.5728318 443.825473,47.6884919 C442.187079,50.4655693 441.369589,54.5956868 441.372991,60.0788445 C441.372991,65.6350472 442.263537,69.8737084 444.044608,72.7948279 C445.630659,75.7333619 448.719515,77.5457852 452.058401,77.4970179 C455.501969,77.6292109 458.756004,75.9200919 460.601601,73.009867 C462.668025,69.874391 463.701578,65.5285517 463.702261,59.9723489 L463.695093,59.9784929 C463.695093,54.8503205 462.841763,50.7884694 461.135102,47.7929395 C459.424022,44.455365 455.902861,42.443732 452.158753,42.6647671 Z M81.8285213,29.7695844 C73.9109974,29.7695844 67.4925761,36.1880057 67.4925761,44.1055296 C67.4925761,52.0230535 73.9109974,58.4414748 81.8285213,58.4414748 L81.8285213,58.4414748 L81.8479772,58.4414748 C85.6475683,58.4390314 89.2905522,56.9272359 91.9754443,54.238695 C94.6603365,51.5501541 96.1671832,47.9051204 96.1644701,44.1055296 L96.1644701,44.1055296 L96.1610586,43.7896398 C95.9930456,36.0179889 89.6404782,29.7695844 81.8285213,29.7695844 Z M226.319489,44.5437999 C224.535292,45.9176821 223.271423,47.8575405 222.735502,50.0447069 C222.233752,51.4908319 221.946041,53.0025231 221.88149,54.5318577 C221.808786,54.9650081 221.990033,55.1759512 222.414992,55.1759512 L243.895357,55.1759512 C244.205958,55.2191534 244.493016,55.0030587 244.537403,54.6926251 C244.544565,54.6392753 244.544565,54.5852076 244.537403,54.5318577 C244.401377,53.2390232 244.186967,51.9556421 243.895357,50.6888004 C243.34578,48.3372891 242.008959,46.2442609 240.106572,44.7567911 C238.053134,43.2451376 235.548123,42.4737818 233.000039,42.5685115 C230.615817,42.4683818 228.265892,43.1632017 226.319489,44.5437999 Z M418.298274,12.5367543 C419.772661,14.0016945 420.566264,16.0170814 420.486554,18.0939811 C420.560747,20.1853656 419.76907,22.2147561 418.298274,23.7034316 C416.773675,25.1881363 414.705613,25.9805542 412.579256,25.8947832 C410.438682,25.9745274 408.357057,25.1839904 406.809038,23.7034316 C405.307931,22.2307781 404.493945,20.1956275 404.565463,18.0939811 C404.488315,16.0066843 405.304342,13.9854257 406.809038,12.5367543 C408.373081,11.0878313 410.448787,10.3198016 412.579256,10.4017225 C414.695498,10.3131275 416.757812,11.0830338 418.298274,12.5367543 Z" fill="#D44140"></path>
    </g>
</svg>

<svg width="512" height="121" xmlns="http://www.w3.org/2000/svg" preserveAspectRatio="xMidYMid">
	<path d="M83.963 0h.615l1.205.002C99.456.026 106.69.33 111.88 4.11a21.684 21.684 0 0 1 4.763 4.742c3.998 5.494 4.103 13.277 4.11 28.578v46.534c-.006 14.86-.164 22.502-4.11 27.918a22.26 22.26 0 0 1-4.763 4.763c-5.422 3.946-13.06 4.104-27.919 4.11H36.77c-14.86-.006-22.502-.164-27.919-4.11a21.684 21.684 0 0 1-4.742-4.763C.33 106.685.026 99.454.002 85.783l-.001-1.206V36.205l.001-1.192c.024-13.72.322-20.965 4.107-26.162A21.175 21.175 0 0 1 8.851 4.11C14.043.33 21.278.026 34.95.002l1.205-.001h.615Zm370.114 31.882a20.764 20.764 0 0 1 12.82 4.002 22.167 22.167 0 0 1 7.695 10.957 42.869 42.869 0 0 1 1.924 13.354 41.38 41.38 0 0 1-1.818 13.034 22.098 22.098 0 0 1-7.586 11.005 21.01 21.01 0 0 1-13.035 3.954 15.607 15.607 0 0 1-12.18-5.237c-.145-.216-.308-.307-.484-.266-.176.04-.265.196-.265.478v20.136c0 1.14-.637 1.39-1.71 1.708 0 0-7.988 2.265-8.976 2.517-.988.252-1.71-.57-1.71-1.707V34.444a1.511 1.511 0 0 1 1.71-1.707h8.976a1.513 1.513 0 0 1 1.71 1.707v2.78c0 .285.088.465.265.533.177.067.338-.033.483-.318a15.012 15.012 0 0 1 12.18-5.557Zm-398.154-2.59H43.331c-3.749.007-5.774.082-7.343.877a8.192 8.192 0 0 0-3.556 3.557c-.796 1.571-.87 3.593-.878 7.358v42.201c.006 3.03.065 4.695.614 6.027a8.121 8.121 0 0 0 4.39 4.39c1.333.55 2.998.608 6.028.614h2.27c3.067-.005 4.722-.062 6.06-.613a8.121 8.121 0 0 0 4.391-4.391c.614-1.492.614-3.402.614-7.178l.002-52.843Zm177.18 2.594c13.323 0 21.123 7.301 23.402 21.903.403 2.905.653 5.829.747 8.76a1.513 1.513 0 0 1-1.709 1.71h-33.126a.563.563 0 0 0-.639.64 14.42 14.42 0 0 0 .639 4.703 10.554 10.554 0 0 0 4.49 5.981 14.84 14.84 0 0 0 8.225 2.138 15.473 15.473 0 0 0 6.898-1.66 12.943 12.943 0 0 0 4.758-4.217c.27-.52.804-.849 1.39-.858a1.56 1.56 0 0 1 .961.325l5.128 4.06c.422.348.69.847.749 1.39-.02.344-.132.676-.325.961a21.484 21.484 0 0 1-8.441 7.693 26.247 26.247 0 0 1-12.288 2.779 24.057 24.057 0 0 1-14.158-4.01 22.446 22.446 0 0 1-8.28-11.16 38.575 38.575 0 0 1-2.136-13.25 41.934 41.934 0 0 1 1.17-11.328 21.584 21.584 0 0 1 8.014-12.073 23.522 23.522 0 0 1 14.531-4.487Zm102.823 0a25.413 25.413 0 0 1 14.532 4.168 19.844 19.844 0 0 1 8.225 10.47c.289.98.503 1.98.642 2.991v.433c0 .784-.463 1.28-1.387 1.494l-8.869 1.39h-.432a1.456 1.456 0 0 1-1.495-1.282l-.324-1.388a9.207 9.207 0 0 0-3.741-5.398 11.782 11.782 0 0 0-7.157-2.19 11.303 11.303 0 0 0-6.894 2.084 10.048 10.048 0 0 0-3.788 5.717 33.297 33.297 0 0 0-1.069 9.508 38.291 38.291 0 0 0 .962 9.511 11.225 11.225 0 0 0 3.847 5.93 10.87 10.87 0 0 0 6.946 2.19 11.795 11.795 0 0 0 6.999-2.084 9.342 9.342 0 0 0 3.789-5.502l.108-.533c.11-.421.353-.796.692-1.07a1.579 1.579 0 0 1 1.338-.432l8.868 1.39c.926.215 1.39.715 1.39 1.498a15.2 15.2 0 0 1-.433 2.56 19.037 19.037 0 0 1-8.226 10.844 26.167 26.167 0 0 1-14.531 4.009 24 24 0 0 1-14.204-4.226 21.888 21.888 0 0 1-8.333-11.379 48.122 48.122 0 0 1 0-25.43 20.736 20.736 0 0 1 8.28-11.162 24.7 24.7 0 0 1 14.265-4.11Zm-40.708 2.29a17.937 17.937 0 0 1 7.641 5.773 13.736 13.736 0 0 1 2.724 8.387c-.003.362-.183.7-.481.906-.31.23-.681.36-1.064.376h-8.383c-1.141 0-1.71-.217-1.71-.644v-.641a5.502 5.502 0 0 0-2.724-4.65 12.962 12.962 0 0 0-7.427-1.87 13.21 13.21 0 0 0-6.784 1.55 4.795 4.795 0 0 0-2.616 4.327 4.224 4.224 0 0 0 2.458 3.9 42.957 42.957 0 0 0 8.228 2.938l2.458.644a80.448 80.448 0 0 1 9.617 3.418 17.756 17.756 0 0 1 6.517 4.915 12.419 12.419 0 0 1 2.672 8.226 13.899 13.899 0 0 1-5.984 11.914c-3.99 2.884-9.296 4.326-15.918 4.326A32.45 32.45 0 0 1 272.626 86a18.27 18.27 0 0 1-7.852-5.451 12.083 12.083 0 0 1-2.778-7.748v-.533a1.513 1.513 0 0 1 1.708-1.71h8.543c1.14 0 1.71.25 1.71.749v.748c0 1.783.979 3.333 2.937 4.65a13.021 13.021 0 0 0 7.428 1.977 12.413 12.413 0 0 0 6.943-1.764 5.192 5.192 0 0 0 2.672-4.433 3.972 3.972 0 0 0-2.191-3.687 35.263 35.263 0 0 0-7.105-2.621l-4.06-1.281a59.755 59.755 0 0 1-9.192-3.42 18.312 18.312 0 0 1-6.305-4.967 12.383 12.383 0 0 1-2.56-8.07 14.196 14.196 0 0 1 5.824-11.912c3.881-2.955 9.027-4.433 15.438-4.434 3.912-.08 7.8.629 11.432 2.085Zm122.97-1.15a1.513 1.513 0 0 1 .586 1.415v51.181a1.512 1.512 0 0 1-1.707 1.71h-8.976a1.514 1.514 0 0 1-1.708-1.71v-51.18a1.516 1.516 0 0 1 1.708-1.709h8.976c.398-.055.802.05 1.122.292Zm-232.842-.291c.085-.001.17.003.254.012h18.62a1.595 1.595 0 0 1 1.603 1.594v9.217c0 .877-.71 1.589-1.588 1.59h-15.872c-.672 0-1.224.51-1.29 1.165l-.007.132v39.177a1.71 1.71 0 0 1-1.723 1.71h-8.976a1.706 1.706 0 0 1-1.705-1.705v-50.37a2.522 2.522 0 0 1 2.522-2.522h8.162Zm192.066 0c.086 0 .173.003.258.012h18.623a1.588 1.588 0 0 1 1.589 1.589l-.001.002v9.224a1.588 1.588 0 0 1-1.587 1.59h-15.88c-.671 0-1.224.51-1.29 1.165l-.007.132v39.173a1.71 1.71 0 0 1-1.71 1.71h-8.973a1.707 1.707 0 0 1-1.699-1.537l-.008-.168v-50.37a2.525 2.525 0 0 1 2.525-2.522h8.16Zm121.862-12.73v12.087a.565.565 0 0 0 .64.641h10.365a1.516 1.516 0 0 1 1.708 1.708v6.621a1.513 1.513 0 0 1-1.292 1.708c-.139.021-.28.024-.42.006h-10.36a.565.565 0 0 0-.641.641v25.216c0 2.78.588 4.775 1.763 5.986 1.176 1.21 3.046 1.816 5.61 1.815h2.777a1.513 1.513 0 0 1 1.709 1.71V85.3a1.622 1.622 0 0 1-1.71 1.815l-5.127.109c-5.63 0-9.832-.98-12.609-2.94-2.777-1.96-4.201-5.612-4.273-10.957V43.417a.566.566 0 0 0-.642-.64h-5.556a1.516 1.516 0 0 1-1.708-1.71V34.44a1.516 1.516 0 0 1 1.708-1.708h5.556a.566.566 0 0 0 .642-.641v-9.45c0-1.14.485-1.327 1.709-1.709l8.44-2.518c1.583-.44 1.704.503 1.71 1.591Zm-47.115 22.66a9.266 9.266 0 0 0-8.334 5.023c-1.638 2.778-2.455 6.908-2.452 12.39 0 5.557.89 9.796 2.672 12.717a8.958 8.958 0 0 0 8.013 4.702 9.677 9.677 0 0 0 8.544-4.487c2.066-3.136 3.1-7.481 3.1-13.038l-.007.006c0-5.128-.853-9.19-2.56-12.185a9.46 9.46 0 0 0-8.976-5.128ZM81.829 29.77c-7.918 0-14.336 6.418-14.336 14.336 0 7.917 6.418 14.335 14.336 14.335h.019a14.326 14.326 0 0 0 14.316-14.335l-.003-.316c-.168-7.772-6.52-14.02-14.332-14.02Zm144.49 14.774a9.924 9.924 0 0 0-3.583 5.5 15.71 15.71 0 0 0-.855 4.488c-.072.433.109.644.534.644h21.48a.57.57 0 0 0 .642-.644 32.11 32.11 0 0 0-.642-3.843 10.59 10.59 0 0 0-3.788-5.932A11.28 11.28 0 0 0 233 42.569c-2.384-.1-4.734.594-6.68 1.975ZM418.3 12.537a7.432 7.432 0 0 1 2.188 5.557 7.598 7.598 0 0 1-2.189 5.61 7.75 7.75 0 0 1-5.719 2.19 7.922 7.922 0 0 1-5.77-2.19 7.5 7.5 0 0 1-2.244-5.61 7.338 7.338 0 0 1 2.244-5.557 8.036 8.036 0 0 1 5.77-2.135 7.854 7.854 0 0 1 5.72 2.135Z" fill="#D44140"/>
</svg>
